pages/zim/img/logo.svg

<svg width="82" height="47" viewBox="0 0 82 47" fill="none" xmlns="http://www.w3.org/2000/svg">
<path d="M7.18811 42.7945H8.20003V45.7266C7.8162 46.0408 7.39747 46.2851 6.90896 46.4247C6.42045 46.5993 5.89704 46.6691 5.37364 46.6691C4.60598 46.6691 3.943 46.4945 3.31491 46.1804C2.72172 45.8662 2.23321 45.3776 1.88427 44.8191C1.53534 44.2257 1.36087 43.5974 1.36087 42.8643C1.36087 42.1313 1.53534 41.4681 1.88427 40.9096C2.23321 40.3162 2.72172 39.8624 3.31491 39.5483C3.90811 39.2341 4.60598 39.0596 5.37364 39.0596C5.96683 39.0596 6.52513 39.1643 7.01364 39.3388C7.50215 39.5483 7.92088 39.8275 8.26981 40.2115L7.60683 40.8747C7.01364 40.2813 6.28087 40.002 5.44343 40.002C4.88513 40.002 4.36172 40.1417 3.90811 40.386C3.45449 40.6303 3.10555 40.9794 2.8613 41.3983C2.61704 41.8521 2.47747 42.3407 2.47747 42.8643C2.47747 43.4228 2.61704 43.9115 2.8613 44.3304C3.10555 44.7842 3.48938 45.0983 3.90811 45.3776C4.36172 45.6219 4.88513 45.7615 5.44343 45.7615C6.1064 45.7615 6.6996 45.587 7.18811 45.2728V42.7945Z" fill="#4A4D56"/>
<path d="M24.0417 46.5644L22.4366 44.2606C22.2273 44.2606 22.0877 44.2955 21.983 44.2955H20.1336V46.5644H19.0519V39.0596H21.983C22.96 39.0596 23.7277 39.3039 24.286 39.7577C24.8443 40.2115 25.1234 40.8747 25.1234 41.6775C25.1234 42.2709 24.9839 42.7596 24.7047 43.1436C24.4256 43.5624 24.0068 43.8417 23.4834 44.0162L25.263 46.5295H24.0417V46.5644ZM23.4834 42.9341C23.8324 42.6549 24.0068 42.236 24.0068 41.6775C24.0068 41.119 23.8324 40.7351 23.4834 40.4209C23.1345 40.1417 22.6111 40.002 21.9481 40.002H20.1336V43.3879H21.9481C22.6111 43.3879 23.1345 43.2483 23.4834 42.9341Z" fill="#4A4D56"/>
<path d="M54.12 45.7962C53.5617 45.2377 53.2826 44.4 53.2826 43.3528V39.0942H54.3643V43.3179C54.3643 44.9235 55.0621 45.7264 56.4579 45.7264C57.1558 45.7264 57.6792 45.5169 58.0281 45.133C58.377 44.749 58.5864 44.1207 58.5864 43.3179V39.0942H59.6332V43.3528C59.6332 44.4349 59.3541 45.2377 58.7958 45.8311C58.2375 46.3896 57.4698 46.6688 56.4579 46.6688C55.446 46.6688 54.6434 46.3896 54.12 45.7962Z" fill="#4A4D56"/>
<path d="M75.7541 39.7924C76.3124 40.2461 76.5915 40.9094 76.5915 41.7122C76.5915 42.515 76.3124 43.1782 75.7541 43.632C75.1958 44.0858 74.4281 44.3301 73.4511 44.3301H71.6017V46.599H70.52V39.0942H73.4511C74.463 39.0942 75.1958 39.3037 75.7541 39.7924ZM74.9864 42.9339C75.3353 42.6547 75.5098 42.2358 75.5098 41.6773C75.5098 41.1188 75.3353 40.7348 74.9864 40.4207C74.6375 40.1414 74.1141 40.0018 73.4511 40.0018H71.6366V43.3528H73.4511C74.1141 43.3877 74.6375 43.2481 74.9864 42.9339Z" fill="#4A4D56"/>
<path d="M12.457 18.8143L9.52596 22.1653H24.914V28.5531H0V24.0153L1.64 22.1653L8.51404 14.2765L15.3532 6.4227H0V0H24.914V4.53778L23.274 6.4227L16.4 14.2765L12.457 18.8143Z" fill="#4A4D56"/>
<path d="M82 0V28.5531H75.6145V10.9256L67.7285 18.8143L63.1924 14.2765L59.8775 10.9256V28.5531H53.457V0H57.9932L59.8775 1.88492L67.7285 9.77368L75.6145 1.88492L77.4987 0H82Z" fill="#4A4D56"/>
<path d="M42.3608 0H35.9753V28.5531H42.3608V0Z" fill="#4A4D56"/>
<path d="M36.9872 46.1804C36.394 45.8662 35.9404 45.3775 35.6264 44.819C35.2775 44.2256 35.1379 43.5624 35.1379 42.8294C35.1379 42.0964 35.3123 41.4332 35.6264 40.8398C35.9753 40.2464 36.4289 39.7926 36.9872 39.4784C37.5804 39.1643 38.2434 38.9897 38.9413 38.9897C39.674 38.9897 40.337 39.1643 40.8953 39.4784C41.4885 39.7926 41.9421 40.2464 42.2562 40.8398C42.5702 41.4332 42.7447 42.0964 42.7447 42.8294C42.7447 43.5624 42.5702 44.2256 42.2562 44.819C41.9421 45.4124 41.4536 45.8662 40.8953 46.1804C40.3021 46.4945 39.6391 46.6691 38.9413 46.6691C38.2085 46.6691 37.5455 46.5294 36.9872 46.1804Z" fill="#12B259"/>
</svg>

<svg width="82" height="47" fill="none" xmlns="http://www.w3.org/2000/svg"><path d="M7.188 42.794H8.2v2.933a3.569 3.569 0 01-1.291.698 4.562 4.562 0 01-1.535.244 4.475 4.475 0 01-2.06-.489 3.829 3.829 0 01-1.43-1.36 3.727 3.727 0 01-.523-1.956c0-.733.174-1.396.523-1.954a3.576 3.576 0 011.43-1.362 4.373 4.373 0 012.06-.488c.593 0 1.151.104 1.64.279.488.21.907.489 1.256.873l-.663.663c-.593-.594-1.326-.873-2.164-.873a3.23 3.23 0 00-1.535.384 2.658 2.658 0 00-1.047 1.012 3.062 3.062 0 00-.384 1.466c0 .559.14 1.047.384 1.466.245.454.628.768 1.047 1.048a3.23 3.23 0 001.535.383c.663 0 1.257-.174 1.745-.488v-2.479zm16.854 3.77l-1.605-2.303c-.21 0-.35.034-.454.034h-1.85v2.27h-1.081V39.06h2.931c.977 0 1.745.244 2.303.698.558.453.837 1.117.837 1.92 0 .593-.14 1.082-.418 1.466-.28.418-.698.698-1.222.872l1.78 2.514h-1.221v.034zm-.559-3.63c.35-.28.524-.698.524-1.256 0-.559-.175-.943-.524-1.257-.349-.28-.872-.419-1.535-.419h-1.814v3.386h1.814c.663 0 1.186-.14 1.535-.454zm30.637 2.862c-.558-.558-.837-1.396-.837-2.443v-4.259h1.081v4.224c0 1.605.698 2.408 2.094 2.408.698 0 1.221-.21 1.57-.593.349-.384.558-1.012.558-1.815v-4.224h1.047v4.259c0 1.082-.279 1.885-.837 2.478-.559.559-1.326.838-2.338.838s-1.815-.28-2.338-.873zm21.634-6.004c.558.454.837 1.117.837 1.92 0 .803-.279 1.466-.837 1.92-.558.454-1.326.698-2.303.698h-1.85v2.27H70.52v-7.505h2.931c1.012 0 1.745.21 2.303.698zm-.768 3.142c.35-.28.524-.698.524-1.257 0-.558-.175-.942-.524-1.256-.349-.28-.872-.42-1.535-.42h-1.814v3.352h1.814c.663.035 1.187-.105 1.535-.42zm-62.529-24.12l-2.931 3.351h15.388v6.388H0v-4.538l1.64-1.85 6.874-7.888 6.84-7.854H0V0h24.914v4.538l-1.64 1.885-6.874 7.854-3.943 4.537zM82 0v28.553h-6.385V10.926l-7.886 7.888-4.537-4.537-3.315-3.351v17.627h-6.42V0h4.536l1.884 1.885 7.851 7.889 7.887-7.89L77.499 0H82zM42.36 0h-6.385v28.553h6.386V0z" fill="#4A4D56"/><path d="M36.987 46.18a3.406 3.406 0 01-1.36-1.361c-.35-.593-.49-1.257-.49-1.99 0-.733.175-1.396.49-1.99a3.638 3.638 0 011.36-1.36 4.158 4.158 0 011.954-.49c.733 0 1.396.175 1.954.49a3.203 3.203 0 011.361 1.36c.314.594.489 1.257.489 1.99 0 .733-.175 1.397-.489 1.99a3.406 3.406 0 01-1.36 1.361 4.158 4.158 0 01-1.955.49c-.733 0-1.396-.14-1.954-.49z" fill="#12B259"/></svg>
